X: 1
T:Air for Isa
M:3/4
L:1/8
C:Mits Ota
K:B minor
 FE | "Bm"F3 B d2 | "F#m"F4 Ad | "Em"E2 G2 B2 | "Bm"D4  EF | "G"G4 B
2 | "Bm"F4 Bc | "G"d2 G2 B2
| "A"A4
FE | "Bm"F3 B d2 | "F#m"F4 Ad |"Em"E2 G2 B2 | "Bm"D4  EF | "G"G4 B2 |
